svg/vector_point_edit.svg

<svg xmlns="http://www.w3.org/2000/svg" viewBox="0 0 24 24"><path d="M9 9v6h6V9zm2 2h2v2h-2zm10.2 2c-.1 0-.3.1-.4.2l-1 1 2.1 2.1 1-1c.2-.2.2-.6 0-.8l-1.3-1.3c-.2-.1-.3-.2-.4-.2m-2.1 1.8L13 20.9V23h2.1l6.1-6.2z"/></svg>

<svg xmlns="http://www.w3.org/2000/svg" id="mdi-vector-point-edit" viewBox="0 0 24 24"><path d="M9 9V15H15V9H9M11 11H13V13H11V11M21.2 13C21.1 13 20.9 13.1 20.8 13.2L19.8 14.2L21.9 16.3L22.9 15.3C23.1 15.1 23.1 14.7 22.9 14.5L21.6 13.2C21.4 13.1 21.3 13 21.2 13M19.1 14.8L13 20.9V23H15.1L21.2 16.8L19.1 14.8Z" /></svg>
